(Exported by FreeCAD)
(Post Processor: linuxcnc_post)
(Output Time:2022-01-10 09:29:54.634245)
(begin preamble)
G17 G54 G40 G49 G80 G90
G21
(begin operation: Default Tool)
(machine: not set, mm/min)
(Default Tool)
M6 T1
M3 S0
(finish operation: Default Tool)
(begin operation: Profile_Faces)
(machine: not set, mm/min)
(Profile_Faces)
(Compensated Tool Path. Diameter: 1.0)
G0 Z5.000
G0 X73.000 Y31.150
G0 Z3.000
G1 X73.000 Y31.150 Z-1.000 F360.000
G1 X53.700 Y31.150 Z-1.000 F360.000
G1 X53.700 Y4.850 Z-1.000 F360.000
G1 X73.000 Y4.850 Z-1.000 F360.000
G1 X73.000 Y31.150 Z-1.000 F360.000
G1 X73.000 Y31.150 Z-2.000 F360.000
G1 X53.700 Y31.150 Z-2.000 F360.000
G1 X53.700 Y4.850 Z-2.000 F360.000
G1 X73.000 Y4.850 Z-2.000 F360.000
G1 X73.000 Y31.150 Z-2.000 F360.000
G1 X73.000 Y31.150 Z-3.000 F360.000
G1 X53.700 Y31.150 Z-3.000 F360.000
G1 X53.700 Y4.850 Z-3.000 F360.000
G1 X73.000 Y4.850 Z-3.000 F360.000
G1 X73.000 Y31.150 Z-3.000 F360.000
G0 Z5.000
G0 X43.973 Y21.323
G0 Z3.000
G1 X43.973 Y21.323 Z-1.000 F360.000
G3 X39.525 Y22.563 Z-1.000 I-3.323 J-3.323 F360.000
G3 X41.775 Y13.437 Z-1.000 I1.125 J-4.563 F360.000
G3 X43.973 Y21.323 Z-1.000 I-1.125 J4.563 F360.000
G1 X43.973 Y21.323 Z-2.000 F360.000
G3 X39.525 Y22.563 Z-2.000 I-3.323 J-3.323 F360.000
G3 X41.775 Y13.437 Z-2.000 I1.125 J-4.563 F360.000
G3 X43.973 Y21.323 Z-2.000 I-1.125 J4.563 F360.000
G1 X43.973 Y21.323 Z-3.000 F360.000
G3 X39.525 Y22.563 Z-3.000 I-3.323 J-3.323 F360.000
G3 X41.775 Y13.437 Z-3.000 I1.125 J-4.563 F360.000
G3 X43.973 Y21.323 Z-3.000 I-1.125 J4.563 F360.000
G0 Z5.000
G0 X22.123 Y21.323
G0 Z3.000
G1 X22.123 Y21.323 Z-1.000 F360.000
G3 X17.675 Y22.563 Z-1.000 I-3.323 J-3.323 F360.000
G3 X19.925 Y13.437 Z-1.000 I1.125 J-4.563 F360.000
G3 X22.123 Y21.323 Z-1.000 I-1.125 J4.563 F360.000
G1 X22.123 Y21.323 Z-2.000 F360.000
G3 X17.675 Y22.563 Z-2.000 I-3.323 J-3.323 F360.000
G3 X19.925 Y13.437 Z-2.000 I1.125 J-4.563 F360.000
G3 X22.123 Y21.323 Z-2.000 I-1.125 J4.563 F360.000
G1 X22.123 Y21.323 Z-3.000 F360.000
G3 X17.675 Y22.563 Z-3.000 I-3.323 J-3.323 F360.000
G3 X19.925 Y13.437 Z-3.000 I1.125 J-4.563 F360.000
G3 X22.123 Y21.323 Z-3.000 I-1.125 J4.563 F360.000
G0 Z5.000
G0 X79.665 Y19.165
G0 Z3.000
G1 X79.665 Y19.165 Z-1.000 F360.000
G3 X77.765 Y19.475 Z-1.000 I-1.165 J-1.165 F360.000
G3 X77.025 Y17.265 Z-1.000 I0.735 J-1.475 F360.000
G3 X79.235 Y16.525 Z-1.000 I1.475 J0.735 F360.000
G3 X79.665 Y19.165 Z-1.000 I-0.735 J1.475 F360.000
G1 X79.665 Y19.165 Z-2.000 F360.000
G3 X77.765 Y19.475 Z-2.000 I-1.165 J-1.165 F360.000
G3 X77.025 Y17.265 Z-2.000 I0.735 J-1.475 F360.000
G3 X79.235 Y16.525 Z-2.000 I1.475 J0.735 F360.000
G3 X79.665 Y19.165 Z-2.000 I-0.735 J1.475 F360.000
G1 X79.665 Y19.165 Z-3.000 F360.000
G3 X77.765 Y19.475 Z-3.000 I-1.165 J-1.165 F360.000
G3 X77.025 Y17.265 Z-3.000 I0.735 J-1.475 F360.000
G3 X79.235 Y16.525 Z-3.000 I1.475 J0.735 F360.000
G3 X79.665 Y19.165 Z-3.000 I-0.735 J1.475 F360.000
G0 Z5.000
G0 X5.665 Y19.165
G0 Z3.000
G1 X5.665 Y19.165 Z-1.000 F360.000
G3 X3.765 Y19.475 Z-1.000 I-1.165 J-1.165 F360.000
G3 X3.025 Y17.265 Z-1.000 I0.735 J-1.475 F360.000
G3 X5.235 Y16.525 Z-1.000 I1.475 J0.735 F360.000
G3 X5.665 Y19.165 Z-1.000 I-0.735 J1.475 F360.000
G1 X5.665 Y19.165 Z-2.000 F360.000
G3 X3.765 Y19.475 Z-2.000 I-1.165 J-1.165 F360.000
G3 X3.025 Y17.265 Z-2.000 I0.735 J-1.475 F360.000
G3 X5.235 Y16.525 Z-2.000 I1.475 J0.735 F360.000
G3 X5.665 Y19.165 Z-2.000 I-0.735 J1.475 F360.000
G1 X5.665 Y19.165 Z-3.000 F360.000
G3 X3.765 Y19.475 Z-3.000 I-1.165 J-1.165 F360.000
G3 X3.025 Y17.265 Z-3.000 I0.735 J-1.475 F360.000
G3 X5.235 Y16.525 Z-3.000 I1.475 J0.735 F360.000
G3 X5.665 Y19.165 Z-3.000 I-0.735 J1.475 F360.000
G0 Z5.000
G0 X6.665 Y48.165
G0 Z3.000
G1 X6.665 Y48.165 Z-1.000 F360.000
G3 X4.765 Y48.475 Z-1.000 I-1.165 J-1.165 F360.000
G3 X4.025 Y46.265 Z-1.000 I0.735 J-1.475 F360.000
G3 X6.235 Y45.525 Z-1.000 I1.475 J0.735 F360.000
G3 X6.665 Y48.165 Z-1.000 I-0.735 J1.475 F360.000
G1 X6.665 Y48.165 Z-2.000 F360.000
G3 X4.765 Y48.475 Z-2.000 I-1.165 J-1.165 F360.000
G3 X4.025 Y46.265 Z-2.000 I0.735 J-1.475 F360.000
G3 X6.235 Y45.525 Z-2.000 I1.475 J0.735 F360.000
G3 X6.665 Y48.165 Z-2.000 I-0.735 J1.475 F360.000
G1 X6.665 Y48.165 Z-3.000 F360.000
G3 X4.765 Y48.475 Z-3.000 I-1.165 J-1.165 F360.000
G3 X4.025 Y46.265 Z-3.000 I0.735 J-1.475 F360.000
G3 X6.235 Y45.525 Z-3.000 I1.475 J0.735 F360.000
G3 X6.665 Y48.165 Z-3.000 I-0.735 J1.475 F360.000
G0 Z5.000
G0 X78.665 Y48.165
G0 Z3.000
G1 X78.665 Y48.165 Z-1.000 F360.000
G3 X76.765 Y48.475 Z-1.000 I-1.165 J-1.165 F360.000
G3 X76.025 Y46.265 Z-1.000 I0.735 J-1.475 F360.000
G3 X78.235 Y45.525 Z-1.000 I1.475 J0.735 F360.000
G3 X78.665 Y48.165 Z-1.000 I-0.735 J1.475 F360.000
G1 X78.665 Y48.165 Z-2.000 F360.000
G3 X76.765 Y48.475 Z-2.000 I-1.165 J-1.165 F360.000
G3 X76.025 Y46.265 Z-2.000 I0.735 J-1.475 F360.000
G3 X78.235 Y45.525 Z-2.000 I1.475 J0.735 F360.000
G3 X78.665 Y48.165 Z-2.000 I-0.735 J1.475 F360.000
G1 X78.665 Y48.165 Z-3.000 F360.000
G3 X76.765 Y48.475 Z-3.000 I-1.165 J-1.165 F360.000
G3 X76.025 Y46.265 Z-3.000 I0.735 J-1.475 F360.000
G3 X78.235 Y45.525 Z-3.000 I1.475 J0.735 F360.000
G3 X78.665 Y48.165 Z-3.000 I-0.735 J1.475 F360.000
G0 Z5.000
G0 X83.354 Y54.354
G0 Z3.000
G1 X83.354 Y54.354 Z-1.000 F360.000
G2 X83.500 Y54.000 Z-1.000 I-0.354 J-0.354 F360.000
G1 X83.500 Y0.000 Z-1.000 F360.000
G2 X83.000 Y-0.500 Z-1.000 I-0.500 J0.000 F360.000
G1 X0.000 Y-0.500 Z-1.000 F360.000
G2 X-0.500 Y0.000 Z-1.000 I0.000 J0.500 F360.000
G1 X-0.500 Y54.000 Z-1.000 F360.000
G2 X0.000 Y54.500 Z-1.000 I0.500 J0.000 F360.000
G1 X12.934 Y54.500 Z-1.000 F360.000
G2 X13.284 Y54.358 Z-1.000 I0.000 J-0.500 F360.000
G3 X69.716 Y54.358 Z-1.000 I28.216 J27.643 F360.000
G2 X70.066 Y54.500 Z-1.000 I0.349 J-0.358 F360.000
G1 X83.000 Y54.500 Z-1.000 F360.000
G2 X83.354 Y54.354 Z-1.000 I0.000 J-0.500 F360.000
G1 X83.354 Y54.354 Z-2.000 F360.000
G2 X83.500 Y54.000 Z-2.000 I-0.354 J-0.354 F360.000
G1 X83.500 Y0.000 Z-2.000 F360.000
G2 X83.000 Y-0.500 Z-2.000 I-0.500 J0.000 F360.000
G1 X0.000 Y-0.500 Z-2.000 F360.000
G2 X-0.500 Y0.000 Z-2.000 I0.000 J0.500 F360.000
G1 X-0.500 Y54.000 Z-2.000 F360.000
G2 X0.000 Y54.500 Z-2.000 I0.500 J0.000 F360.000
G1 X12.934 Y54.500 Z-2.000 F360.000
G2 X13.284 Y54.358 Z-2.000 I0.000 J-0.500 F360.000
G3 X69.716 Y54.358 Z-2.000 I28.216 J27.643 F360.000
G2 X70.066 Y54.500 Z-2.000 I0.349 J-0.358 F360.000
G1 X83.000 Y54.500 Z-2.000 F360.000
G2 X83.354 Y54.354 Z-2.000 I0.000 J-0.500 F360.000
G1 X83.354 Y54.354 Z-3.000 F360.000
G2 X83.500 Y54.000 Z-3.000 I-0.354 J-0.354 F360.000
G1 X83.500 Y0.000 Z-3.000 F360.000
G2 X83.000 Y-0.500 Z-3.000 I-0.500 J0.000 F360.000
G1 X0.000 Y-0.500 Z-3.000 F360.000
G2 X-0.500 Y0.000 Z-3.000 I0.000 J0.500 F360.000
G1 X-0.500 Y54.000 Z-3.000 F360.000
G2 X0.000 Y54.500 Z-3.000 I0.500 J0.000 F360.000
G1 X12.934 Y54.500 Z-3.000 F360.000
G2 X13.284 Y54.358 Z-3.000 I0.000 J-0.500 F360.000
G3 X69.716 Y54.358 Z-3.000 I28.216 J27.643 F360.000
G2 X70.066 Y54.500 Z-3.000 I0.349 J-0.358 F360.000
G1 X83.000 Y54.500 Z-3.000 F360.000
G2 X83.354 Y54.354 Z-3.000 I0.000 J-0.500 F360.000
G0 Z5.000
(finish operation: Profile_Faces)
(begin postamble)
M05
G17 G54 G90 G80 G40
M2
