(Exported by FreeCAD)
(Post Processor: linuxcnc_post)
(Output Time:2022-01-11 00:57:04.174955)
(begin preamble)
G17 G54 G40 G49 G80 G90
G21
(begin operation: Default Tool)
(machine: not set, mm/min)
(Default Tool)
M6 T1
M3 S0
(finish operation: Default Tool)
(begin operation: Profile_Faces)
(machine: not set, mm/min)
(Profile_Faces)
(Compensated Tool Path. Diameter: 1.0)
G0 Z5.000
G0 X16.510 Y20.510
G0 Z3.000
G1 X16.510 Y20.510 Z-1.000 F12.000
G1 X6.490 Y20.510 Z-1.000 F12.000
G1 X6.490 Y20.490 Z-1.000 F12.000
G1 X10.000 Y20.490 Z-1.000 F12.000
G2 X10.490 Y20.000 Z-1.000 I-0.000 J-0.490 F12.000
G1 X10.490 Y18.000 Z-1.000 F12.000
G2 X10.000 Y17.510 Z-1.000 I-0.490 J0.000 F12.000
G1 X6.490 Y17.510 Z-1.000 F12.000
G1 X6.490 Y7.490 Z-1.000 F12.000
G1 X10.000 Y7.490 Z-1.000 F12.000
G2 X10.490 Y7.000 Z-1.000 I-0.000 J-0.490 F12.000
G1 X10.490 Y3.000 Z-1.000 F12.000
G2 X10.000 Y2.510 Z-1.000 I-0.490 J0.000 F12.000
G1 X3.490 Y2.510 Z-1.000 F12.000
G1 X3.490 Y0.990 Z-1.000 F12.000
G1 X16.510 Y0.990 Z-1.000 F12.000
G1 X16.510 Y20.510 Z-1.000 F12.000
G1 X16.510 Y20.510 Z-2.000 F12.000
G1 X6.490 Y20.510 Z-2.000 F12.000
G1 X6.490 Y20.490 Z-2.000 F12.000
G1 X10.000 Y20.490 Z-2.000 F12.000
G2 X10.490 Y20.000 Z-2.000 I-0.000 J-0.490 F12.000
G1 X10.490 Y18.000 Z-2.000 F12.000
G2 X10.000 Y17.510 Z-2.000 I-0.490 J0.000 F12.000
G1 X6.490 Y17.510 Z-2.000 F12.000
G1 X6.490 Y7.490 Z-2.000 F12.000
G1 X10.000 Y7.490 Z-2.000 F12.000
G2 X10.490 Y7.000 Z-2.000 I-0.000 J-0.490 F12.000
G1 X10.490 Y3.000 Z-2.000 F12.000
G2 X10.000 Y2.510 Z-2.000 I-0.490 J0.000 F12.000
G1 X3.490 Y2.510 Z-2.000 F12.000
G1 X3.490 Y0.990 Z-2.000 F12.000
G1 X16.510 Y0.990 Z-2.000 F12.000
G1 X16.510 Y20.510 Z-2.000 F12.000
G0 Z5.000
G0 X66.481 Y9.481
G0 Z3.000
G1 X66.481 Y9.481 Z-1.000 F12.000
G3 X62.825 Y10.306 Z-1.000 I-2.481 J-2.481 F12.000
G3 X60.694 Y5.825 Z-1.000 I1.175 J-3.306 F12.000
G3 X65.175 Y3.694 Z-1.000 I3.306 J1.175 F12.000
G3 X66.481 Y9.481 Z-1.000 I-1.175 J3.306 F12.000
G1 X66.481 Y9.481 Z-2.000 F12.000
G3 X62.825 Y10.306 Z-2.000 I-2.481 J-2.481 F12.000
G3 X60.694 Y5.825 Z-2.000 I1.175 J-3.306 F12.000
G3 X65.175 Y3.694 Z-2.000 I3.306 J1.175 F12.000
G3 X66.481 Y9.481 Z-2.000 I-1.175 J3.306 F12.000
G0 Z5.000
G0 X66.481 Y22.481
G0 Z3.000
G1 X66.481 Y22.481 Z-1.000 F12.000
G3 X62.825 Y23.306 Z-1.000 I-2.481 J-2.481 F12.000
G3 X60.694 Y18.825 Z-1.000 I1.175 J-3.306 F12.000
G3 X65.175 Y16.694 Z-1.000 I3.306 J1.175 F12.000
G3 X66.481 Y22.481 Z-1.000 I-1.175 J3.306 F12.000
G1 X66.481 Y22.481 Z-2.000 F12.000
G3 X62.825 Y23.306 Z-2.000 I-2.481 J-2.481 F12.000
G3 X60.694 Y18.825 Z-2.000 I1.175 J-3.306 F12.000
G3 X65.175 Y16.694 Z-2.000 I3.306 J1.175 F12.000
G3 X66.481 Y22.481 Z-2.000 I-1.175 J3.306 F12.000
G0 Z5.000
G0 X56.481 Y22.481
G0 Z3.000
G1 X56.481 Y22.481 Z-1.000 F12.000
G3 X52.825 Y23.306 Z-1.000 I-2.481 J-2.481 F12.000
G3 X50.694 Y18.825 Z-1.000 I1.175 J-3.306 F12.000
G3 X55.175 Y16.694 Z-1.000 I3.306 J1.175 F12.000
G3 X56.481 Y22.481 Z-1.000 I-1.175 J3.306 F12.000
G1 X56.481 Y22.481 Z-2.000 F12.000
G3 X52.825 Y23.306 Z-2.000 I-2.481 J-2.481 F12.000
G3 X50.694 Y18.825 Z-2.000 I1.175 J-3.306 F12.000
G3 X55.175 Y16.694 Z-2.000 I3.306 J1.175 F12.000
G3 X56.481 Y22.481 Z-2.000 I-1.175 J3.306 F12.000
G0 Z5.000
G0 X56.481 Y9.481
G0 Z3.000
G1 X56.481 Y9.481 Z-1.000 F12.000
G3 X52.825 Y10.306 Z-1.000 I-2.481 J-2.481 F12.000
G3 X50.694 Y5.825 Z-1.000 I1.175 J-3.306 F12.000
G3 X55.175 Y3.694 Z-1.000 I3.306 J1.175 F12.000
G3 X56.481 Y9.481 Z-1.000 I-1.175 J3.306 F12.000
G1 X56.481 Y9.481 Z-2.000 F12.000
G3 X52.825 Y10.306 Z-2.000 I-2.481 J-2.481 F12.000
G3 X50.694 Y5.825 Z-2.000 I1.175 J-3.306 F12.000
G3 X55.175 Y3.694 Z-2.000 I3.306 J1.175 F12.000
G3 X56.481 Y9.481 Z-2.000 I-1.175 J3.306 F12.000
G0 Z5.000
G0 X46.481 Y9.481
G0 Z3.000
G1 X46.481 Y9.481 Z-1.000 F12.000
G3 X42.825 Y10.306 Z-1.000 I-2.481 J-2.481 F12.000
G3 X40.694 Y5.825 Z-1.000 I1.175 J-3.306 F12.000
G3 X45.175 Y3.694 Z-1.000 I3.306 J1.175 F12.000
G3 X46.481 Y9.481 Z-1.000 I-1.175 J3.306 F12.000
G1 X46.481 Y9.481 Z-2.000 F12.000
G3 X42.825 Y10.306 Z-2.000 I-2.481 J-2.481 F12.000
G3 X40.694 Y5.825 Z-2.000 I1.175 J-3.306 F12.000
G3 X45.175 Y3.694 Z-2.000 I3.306 J1.175 F12.000
G3 X46.481 Y9.481 Z-2.000 I-1.175 J3.306 F12.000
G0 Z5.000
G0 X36.481 Y9.481
G0 Z3.000
G1 X36.481 Y9.481 Z-1.000 F12.000
G3 X32.825 Y10.306 Z-1.000 I-2.481 J-2.481 F12.000
G3 X30.694 Y5.825 Z-1.000 I1.175 J-3.306 F12.000
G3 X35.175 Y3.694 Z-1.000 I3.306 J1.175 F12.000
G3 X36.481 Y9.481 Z-1.000 I-1.175 J3.306 F12.000
G1 X36.481 Y9.481 Z-2.000 F12.000
G3 X32.825 Y10.306 Z-2.000 I-2.481 J-2.481 F12.000
G3 X30.694 Y5.825 Z-2.000 I1.175 J-3.306 F12.000
G3 X35.175 Y3.694 Z-2.000 I3.306 J1.175 F12.000
G3 X36.481 Y9.481 Z-2.000 I-1.175 J3.306 F12.000
G0 Z5.000
G0 X26.481 Y9.481
G0 Z3.000
G1 X26.481 Y9.481 Z-1.000 F12.000
G3 X22.825 Y10.306 Z-1.000 I-2.481 J-2.481 F12.000
G3 X20.694 Y5.825 Z-1.000 I1.175 J-3.306 F12.000
G3 X25.175 Y3.694 Z-1.000 I3.306 J1.175 F12.000
G3 X26.481 Y9.481 Z-1.000 I-1.175 J3.306 F12.000
G1 X26.481 Y9.481 Z-2.000 F12.000
G3 X22.825 Y10.306 Z-2.000 I-2.481 J-2.481 F12.000
G3 X20.694 Y5.825 Z-2.000 I1.175 J-3.306 F12.000
G3 X25.175 Y3.694 Z-2.000 I3.306 J1.175 F12.000
G3 X26.481 Y9.481 Z-2.000 I-1.175 J3.306 F12.000
G0 Z5.000
G0 X46.481 Y22.481
G0 Z3.000
G1 X46.481 Y22.481 Z-1.000 F12.000
G3 X42.825 Y23.306 Z-1.000 I-2.481 J-2.481 F12.000
G3 X40.694 Y18.825 Z-1.000 I1.175 J-3.306 F12.000
G3 X45.175 Y16.694 Z-1.000 I3.306 J1.175 F12.000
G3 X46.481 Y22.481 Z-1.000 I-1.175 J3.306 F12.000
G1 X46.481 Y22.481 Z-2.000 F12.000
G3 X42.825 Y23.306 Z-2.000 I-2.481 J-2.481 F12.000
G3 X40.694 Y18.825 Z-2.000 I1.175 J-3.306 F12.000
G3 X45.175 Y16.694 Z-2.000 I3.306 J1.175 F12.000
G3 X46.481 Y22.481 Z-2.000 I-1.175 J3.306 F12.000
G0 Z5.000
G0 X36.481 Y22.481
G0 Z3.000
G1 X36.481 Y22.481 Z-1.000 F12.000
G3 X32.825 Y23.306 Z-1.000 I-2.481 J-2.481 F12.000
G3 X30.694 Y18.825 Z-1.000 I1.175 J-3.306 F12.000
G3 X35.175 Y16.694 Z-1.000 I3.306 J1.175 F12.000
G3 X36.481 Y22.481 Z-1.000 I-1.175 J3.306 F12.000
G1 X36.481 Y22.481 Z-2.000 F12.000
G3 X32.825 Y23.306 Z-2.000 I-2.481 J-2.481 F12.000
G3 X30.694 Y18.825 Z-2.000 I1.175 J-3.306 F12.000
G3 X35.175 Y16.694 Z-2.000 I3.306 J1.175 F12.000
G3 X36.481 Y22.481 Z-2.000 I-1.175 J3.306 F12.000
G0 Z5.000
G0 X26.481 Y22.481
G0 Z3.000
G1 X26.481 Y22.481 Z-1.000 F12.000
G3 X22.825 Y23.306 Z-1.000 I-2.481 J-2.481 F12.000
G3 X20.694 Y18.825 Z-1.000 I1.175 J-3.306 F12.000
G3 X25.175 Y16.694 Z-1.000 I3.306 J1.175 F12.000
G3 X26.481 Y22.481 Z-1.000 I-1.175 J3.306 F12.000
G1 X26.481 Y22.481 Z-2.000 F12.000
G3 X22.825 Y23.306 Z-2.000 I-2.481 J-2.481 F12.000
G3 X20.694 Y18.825 Z-2.000 I1.175 J-3.306 F12.000
G3 X25.175 Y16.694 Z-2.000 I3.306 J1.175 F12.000
G3 X26.481 Y22.481 Z-2.000 I-1.175 J3.306 F12.000
G0 Z5.000
(finish operation: Profile_Faces)
(begin postamble)
M05
G17 G54 G90 G80 G40
M2
